src/lib/packages/icons/src/assets/filled/invoice.svg

<svg width="24" height="24" viewBox="0 0 24 24" fill="none" xmlns="http://www.w3.org/2000/svg">
<path d="M21 11.5V18.25C21 18.94 20.44 19.5 19.75 19.5C19.06 19.5 18.5 18.94 18.5 18.25V10H19.5C20.328 10 21 10.672 21 11.5ZM19 21H6C4 21 3 20 3 18V6C3 4 4 3 6 3H14C16 3 17 4 17 6V19C17 20.104 17.895 21 19 21ZM6.25 7.29004C6.25 7.70504 6.38499 8.11105 6.62799 8.43005C6.87699 8.76205 7.233 9.00196 7.633 9.10596L8.56201 9.34595C8.71501 9.38595 8.82202 9.53596 8.82202 9.70996C8.82202 9.84996 8.75403 9.94106 8.71503 9.98206C8.67103 10.0281 8.59501 10.083 8.48901 10.083H8.08398C7.91798 10.083 7.77299 9.93695 7.75299 9.75195C7.70799 9.33995 7.34303 9.04304 6.92603 9.08704C6.51403 9.13104 6.21699 9.50194 6.26099 9.91394C6.34199 10.6659 6.85201 11.2661 7.52301 11.4871V11.5C7.52301 11.914 7.85901 12.25 8.27301 12.25C8.68701 12.25 9.02301 11.914 9.02301 11.5V11.493C9.31001 11.403 9.57501 11.25 9.79401 11.024C10.134 10.67 10.321 10.2041 10.321 9.71106C10.321 8.85506 9.75403 8.10902 8.93903 7.89502L8.00897 7.65503C7.91897 7.63103 7.86097 7.57398 7.82397 7.52698C7.77697 7.46498 7.74902 7.37902 7.74902 7.29102C7.74902 7.08502 7.89797 6.91699 8.08197 6.91699H8.487C8.655 6.91699 8.79799 7.05905 8.81799 7.24805C8.86199 7.66005 9.22402 7.95396 9.64502 7.91296C10.057 7.86896 10.354 7.49806 10.31 7.08606C10.228 6.32506 9.70597 5.71998 9.02197 5.50598V5.50098C9.02197 5.08698 8.68597 4.75098 8.27197 4.75098C7.85797 4.75098 7.52197 5.08698 7.52197 5.50098V5.51599C6.78697 5.75899 6.25 6.45804 6.25 7.29004ZM10.75 17C10.75 16.586 10.414 16.25 10 16.25H7C6.586 16.25 6.25 16.586 6.25 17C6.25 17.414 6.586 17.75 7 17.75H10C10.414 17.75 10.75 17.414 10.75 17ZM13.75 14C13.75 13.586 13.414 13.25 13 13.25H7C6.586 13.25 6.25 13.586 6.25 14C6.25 14.414 6.586 14.75 7 14.75H13C13.414 14.75 13.75 14.414 13.75 14Z" fill="currentColor"/>
</svg>

<svg xmlns="http://www.w3.org/2000/svg" width="24" height="24" fill="none"><path fill="currentColor" d="M21 11.5v6.75a1.25 1.25 0 0 1-2.5 0V10h1a1.5 1.5 0 0 1 1.5 1.5ZM19 21H6c-2 0-3-1-3-3V6c0-2 1-3 3-3h8c2 0 3 1 3 3v13a2 2 0 0 0 2 2ZM6.25 7.29c0 .415.135.821.378 1.14a1.84 1.84 0 0 0 1.005.676l.929.24c.153.04.26.19.26.364 0 .14-.068.231-.107.272a.312.312 0 0 1-.226.101h-.405c-.166 0-.311-.146-.331-.331a.75.75 0 0 0-1.492.162 1.86 1.86 0 0 0 1.262 1.573v.013a.75.75 0 0 0 1.5 0v-.007a1.82 1.82 0 0 0 .771-.469c.34-.354.527-.82.527-1.313 0-.856-.567-1.602-1.382-1.816l-.93-.24a.35.35 0 0 1-.185-.128.397.397 0 0 1-.075-.236c0-.206.149-.374.333-.374h.405c.168 0 .311.142.331.331a.75.75 0 0 0 1.492-.162 1.857 1.857 0 0 0-1.288-1.58v-.005a.75.75 0 0 0-1.5 0v.015A1.865 1.865 0 0 0 6.25 7.29Zm4.5 9.71a.75.75 0 0 0-.75-.75H7a.75.75 0 0 0 0 1.5h3a.75.75 0 0 0 .75-.75Zm3-3a.75.75 0 0 0-.75-.75H7a.75.75 0 0 0 0 1.5h6a.75.75 0 0 0 .75-.75Z"/></svg>
